packages/core/src/svgs/tokens/branded/ARIX.svg

<svg width="24" height="24" viewBox="0 0 24 24" fill="none" xmlns="http://www.w3.org/2000/svg">
<path d="M12.1844 8.66841L12.395 7.80524C10.1002 7.80524 6.55805 8.45261 6.14226 11.2474C5.81068 13.4842 8.50544 15.6158 9.89487 16.4053C9.68437 15.9053 9.2686 14.3422 9.2686 12.1053C9.2686 9.86838 11.216 8.88419 12.1844 8.66841Z" fill="url(#paint0_linear_364_8433)"/>
<path d="M6.78476 13.5579C6.88476 12.2737 7.3374 10.4737 8.64268 9.52631C9.71022 8.72803 10.9949 8.27284 12.3269 8.22103L12.4217 7.80524C10.1322 7.80524 6.59002 8.45261 6.16896 11.2474C6.08491 12.0686 6.30392 12.8922 6.78476 13.5632V13.5579Z" fill="#38296A"/>
<path d="M12.185 11.8947C11.5218 11.721 10.6586 11.1053 10.3113 10.8157C9.31124 12.1947 9.61646 14.8315 9.8902 15.9737C10.8955 16.4947 11.9797 16.479 12.3955 16.4106L12.185 11.8947Z" fill="#4E2B85"/>
<path d="M9.89551 22C11.2271 20.4526 11.8429 13.0368 11.9798 9.52625L14.064 18.7737C13.3955 19.9789 11.0113 21.4264 9.89551 22Z" fill="#692B90"/>
<path d="M12.6057 20.279L11.9741 9.52625L14.0636 18.7737C13.7147 19.3922 13.2126 19.9104 12.6057 20.279Z" fill="#4C2365"/>
<path d="M13.4365 20.279L11.9785 9.52625L15.9365 17.4842C15.4364 18.5158 14.0628 19.779 13.4365 20.279Z" fill="#7D278A"/>
<path d="M15.9365 17.4842L11.9785 9.52625L15.3102 18.3422C15.647 18 15.7997 17.7684 15.9418 17.4842H15.9365Z" fill="#6A2C75"/>
<path d="M15.9365 18.5579L11.9785 9.52625L17.6101 15.3315C17.6101 16.1947 16.4944 17.8421 15.9365 18.5579Z" fill="#AD3398"/>
<path d="M17.6057 15.3315L11.9741 9.52625L17.1848 16.621C17.5216 16.1052 17.6057 15.5474 17.6057 15.3315Z" fill="#7A246D"/>
<path d="M18.2313 12.5368L11.9785 9.52625L17.6101 16.4105C18.4365 15.3789 18.3681 13.4 18.2313 12.5368Z" fill="#DC3390"/>
<path d="M12.3955 7.80532L11.3534 7.1632C11.564 7.01583 12.0008 6.68952 12.0008 6.51583V5.65793C12.1376 5.51056 12.4745 5.18425 12.8113 5.01056C12.9534 5.30003 13.3113 5.91583 13.6482 6.08425C13.9797 6.25793 14.064 6.73162 14.064 6.94742C13.8768 6.77444 13.6658 6.62911 13.4377 6.51583C13.1061 6.34214 12.8797 5.72635 12.8113 5.44213C12.6744 5.58424 12.3955 5.91583 12.3955 6.08425C12.3955 6.18952 12.4482 6.30004 12.5008 6.41057C12.5534 6.51583 12.606 6.62109 12.606 6.72636C12.606 6.9053 12.185 7.08952 11.9744 7.1632C12.2587 7.23163 12.8166 7.46321 12.8166 7.80532V9.0948C12.9534 8.88427 13.3113 8.4948 13.6482 8.66849C14.064 8.87902 14.4797 9.3106 14.4797 9.958L15.5218 9.74222L14.8955 8.84217H14.4797V8.2369L14.0587 7.80532C14.2008 7.7369 14.4797 7.6369 14.4797 7.80532C14.4797 7.97901 14.7587 8.02112 14.9008 8.02112V8.45269L15.3114 8.66322L15.7323 9.31059L16.1482 9.958C16.285 9.60001 16.6482 8.83691 16.9798 8.66849C16.564 8.31059 15.6851 7.50531 15.6851 7.1632V5.44213C14.9903 4.79476 13.6482 3.42106 13.6482 3.07369V2L13.0166 3.07369L12.3955 2.21579V3.72107C12.2587 4.22107 11.7692 5.26846 10.9377 5.44213C9.89551 5.65266 5.93756 6.51583 5.72703 9.958C5.55861 12.7106 5.93756 13.537 6.14808 13.6107C6.07439 11.8211 7.22704 8.15269 12.3955 7.80532ZM14.8955 5.22634C14.8955 5.36845 14.9798 5.74214 15.3166 6.08425V6.51583C15.2429 6.51583 15.064 6.43162 14.8955 6.08425V5.22634Z" fill="url(#paint1_linear_364_8433)"/>
<defs>
<linearGradient id="paint0_linear_364_8433" x1="11.7687" y1="8.02102" x2="7.20016" y2="14.7737" gradientUnits="userSpaceOnUse">
<stop stop-color="#5E338F"/>
<stop offset="0.59" stop-color="#6E2B92"/>
<stop offset="1" stop-color="#D438A3"/>
</linearGradient>
<linearGradient id="paint1_linear_364_8433" x1="15.5218" y1="4.79476" x2="6.09019" y2="13.1053" gradientUnits="userSpaceOnUse">
<stop stop-color="#B23593"/>
<stop offset="0.36" stop-color="#80318C"/>
<stop offset="0.74" stop-color="#772F93"/>
<stop offset="1" stop-color="#B82E8E"/>
</linearGradient>
</defs>
</svg>

<svg xmlns="http://www.w3.org/2000/svg" width="24" height="24" fill="none" viewBox="0 0 24 24">
    <path fill="url(#ARIX__a)" d="m12.184 8.668.211-.863c-2.295 0-5.837.648-6.253 3.442-.331 2.237 2.363 4.369 3.753 5.158-.21-.5-.626-2.063-.626-4.3s1.947-3.22 2.915-3.437"/>
    <path fill="#38296A" d="M6.785 13.558c.1-1.284.552-3.084 1.858-4.032a6.6 6.6 0 0 1 3.684-1.305l.095-.416c-2.29 0-5.832.648-6.253 3.442a3.38 3.38 0 0 0 .616 2.316z"/>
    <path fill="#4E2B85" d="M12.185 11.895c-.663-.174-1.526-.79-1.874-1.08-1 1.38-.695 4.017-.42 5.159 1.005.52 2.089.505 2.505.437z"/>
    <path fill="#692B90" d="M9.896 22c1.331-1.547 1.947-8.963 2.084-12.474l2.084 9.248c-.668 1.205-3.053 2.652-4.168 3.226"/>
    <path fill="#4C2365" d="m12.606 20.279-.632-10.753 2.09 9.248a4.14 4.14 0 0 1-1.458 1.505"/>
    <path fill="#7D278A" d="M13.437 20.279 11.979 9.526l3.958 7.958c-.5 1.032-1.874 2.295-2.5 2.795"/>
    <path fill="#6A2C75" d="m15.937 17.484-3.958-7.958 3.331 8.816c.337-.342.49-.574.632-.858z"/>
    <path fill="#AD3398" d="m15.937 18.558-3.958-9.032 5.631 5.806c0 .863-1.116 2.51-1.673 3.226"/>
    <path fill="#7A246D" d="m17.606 15.332-5.632-5.806 5.21 7.095c.338-.516.422-1.074.422-1.29"/>
    <path fill="#DC3390" d="m18.231 12.537-6.253-3.01 5.632 6.884c.826-1.032.758-3.011.621-3.874"/>
    <path fill="url(#ARIX__b)" d="m12.396 7.805-1.043-.642c.211-.147.648-.473.648-.647v-.858c.137-.147.474-.474.81-.647.142.289.5.905.837 1.073.332.174.416.648.416.863a2.7 2.7 0 0 0-.626-.431c-.332-.174-.558-.79-.627-1.074-.137.142-.415.474-.415.642 0 .106.052.216.105.327.052.105.105.21.105.315 0 .18-.421.364-.632.437.285.069.843.3.843.642v1.29c.136-.21.494-.6.831-.427.416.211.832.643.832 1.29l1.042-.216-.626-.9h-.416v-.605l-.421-.432c.142-.068.42-.168.42 0 0 .174.28.216.422.216v.432l.41.21.421.648.416.647c.137-.358.5-1.121.832-1.29-.416-.357-1.295-1.163-1.295-1.505v-1.72c-.695-.648-2.037-2.022-2.037-2.37V2l-.631 1.074-.621-.858V3.72c-.137.5-.627 1.547-1.458 1.721-1.042.21-5 1.074-5.211 4.516-.168 2.753.21 3.579.421 3.653-.074-1.79 1.079-5.458 6.248-5.806m2.5-2.579c0 .142.084.516.42.858v.432c-.073 0-.252-.084-.42-.432z"/>
    <defs>
        <linearGradient id="ARIX__a" x1="11.769" x2="7.2" y1="8.021" y2="14.774" gradientUnits="userSpaceOnUse">
            <stop stop-color="#5E338F"/>
            <stop offset=".59" stop-color="#6E2B92"/>
            <stop offset="1" stop-color="#D438A3"/>
        </linearGradient>
        <linearGradient id="ARIX__b" x1="15.522" x2="6.09" y1="4.795" y2="13.105" gradientUnits="userSpaceOnUse">
            <stop stop-color="#B23593"/>
            <stop offset=".36" stop-color="#80318C"/>
            <stop offset=".74" stop-color="#772F93"/>
            <stop offset="1" stop-color="#B82E8E"/>
        </linearGradient>
    </defs>
</svg>
